X:1
T:The Banks of the Devon
S:Scots Musical Museum #157
Z: Jack Campin <jc:purr.demon.co.uk> scots-l 2001-6-20
N:transposed
M:6/8
L:1/8
K:A Min
E|A>Bd    e>dg |d>Gc B>AG|A>Bd e>ga |e>dB  A2
E|A>Bd    e>dg |d>Gc B>AG|A>Bd e>ga |e>dB  A2||
z|a>ea {a}c'>ba|g>dg B>AG|a>ea c'>ba|e>a^g a2
a|a>ea    c'>ba|g>dg B>AG|A>Bd e>ga |e>dB  A2|]
